packages/ui-icons/src/Basic/32/Change-sim-card_32.svg

<svg xmlns="http://www.w3.org/2000/svg" viewBox="0 0 40 40"><path d="M26 12h-7.41L14 16.6V28h12Zm-2 14h-8v-8.58L19.41 14H24Zm13.18-7.58L39 19.57 35.76 24h-1.52L31 19.57l1.82-1.14 1.18 3V20a14 14 0 0 0-23.9-9.9L8.69 8.69A16 16 0 0 1 36 20v1.39ZM2.82 21.57 1 20.43 4.24 16h1.52L9 20.43l-1.82 1.14L6 18.61V20a14 14 0 0 0 23.9 9.9l1.41 1.41A16 16 0 0 1 4 20v-1.39Z"/></svg>

<svg id="Ready" xmlns="http://www.w3.org/2000/svg" viewBox="0 0 40 40"><title>Megaicons_work_32_1.8_cp</title><path d="M26,12H18.59L14,16.6V28H26ZM24,26H16V17.42L19.41,14H24Zm13.18-7.58L39,19.57,35.76,24H34.24L31,19.57l1.82-1.14,1.18,3V20a14,14,0,0,0-23.9-9.9L8.69,8.69A16,16,0,0,1,36,20v1.39ZM2.82,21.57,1,20.43,4.24,16H5.76L9,20.43,7.18,21.57,6,18.61V20a14,14,0,0,0,23.9,9.9l1.41,1.41A16,16,0,0,1,4,20V18.61Z"/></svg>
